src/images/svg/symbols/binance_coin_flag.svg

<svg width="33" height="32" viewBox="0 0 33 32" fill="none" xmlns="http://www.w3.org/2000/svg">
<path d="M0.5 16C0.5 7.16344 7.66344 0 16.5 0C25.3366 0 32.5 7.16344 32.5 16C32.5 24.8366 25.3366 32 16.5 32C7.66344 32 0.5 24.8366 0.5 16Z" fill="#F3BA2F"/>
<path d="M19.6313 14.6964C19.5538 14.6842 19.5112 14.6362 19.4705 14.5903C19.4595 14.578 19.4488 14.5658 19.4375 14.5546L19.0479 14.1658C18.2599 13.3795 17.4717 12.593 16.6916 11.799C16.5402 11.645 16.4598 11.6452 16.3085 11.7992C15.8015 12.3153 15.2903 12.8274 14.779 13.3394C14.3741 13.745 13.969 14.1507 13.5662 14.5583C13.4351 14.6909 13.3606 14.7073 13.2191 14.5602C12.7323 14.054 12.2313 13.5612 11.7269 13.0723C11.599 12.9484 11.6061 12.8719 11.7278 12.7507C13.2824 11.2018 14.8337 9.64963 16.382 8.09441C16.4805 7.99552 16.5336 8.00575 16.6254 8.09783C18.1693 9.6471 19.7151 11.1943 21.2645 12.7381C21.3891 12.8621 21.413 12.9415 21.2727 13.0775C20.9222 13.417 20.5781 13.763 20.234 14.109C20.0829 14.2609 19.9319 14.4127 19.7803 14.5641C19.7468 14.5976 19.7106 14.6284 19.6762 14.6577C19.6607 14.6709 19.6456 14.6838 19.6313 14.6964Z" fill="white"/>
<path d="M21.3731 19.129C21.3501 19.1552 21.3252 19.1834 21.2987 19.2099L20.227 20.2848C19.024 21.4912 17.8203 22.6983 16.62 23.9075C16.519 24.0092 16.4693 23.9908 16.3797 23.9007C14.8248 22.3363 13.2679 20.774 11.7072 19.2154C11.5956 19.104 11.6013 19.0384 11.7097 18.9327C12.2358 18.4195 12.7603 17.9044 13.2735 17.3784C13.3958 17.253 13.4583 17.3182 13.5286 17.3916C13.5364 17.3997 13.5442 17.4079 13.5522 17.4159C13.7615 17.6255 13.971 17.8349 14.1806 18.0443L14.1819 18.0456C14.8958 18.7591 15.61 19.4727 16.3151 20.1947C16.4769 20.3604 16.5485 20.3322 16.6936 20.1844C17.1569 19.7125 17.6239 19.2443 18.0909 18.7761C18.5353 18.3306 18.9798 17.885 19.421 17.4364C19.5718 17.2829 19.6577 17.2849 19.8063 17.4395C20.1474 17.7942 20.4964 18.1411 20.8455 18.488C20.9959 18.6375 21.1464 18.7871 21.2961 18.9372C21.3051 18.9462 21.3149 18.9547 21.3248 18.9632C21.362 18.9955 21.4007 19.0291 21.4028 19.0957C21.3976 19.1014 21.3924 19.1073 21.387 19.1133C21.3824 19.1185 21.3778 19.1237 21.3731 19.129Z" fill="white"/>
<path d="M16.4487 17.7776C16.4577 17.7845 16.4662 17.791 16.4734 17.797C16.5431 17.8025 16.5767 17.7671 16.6093 17.7328L16.6188 17.7228L16.6242 17.7174C16.7646 17.5774 16.9047 17.4371 17.0448 17.2968L17.0456 17.296C17.4341 16.9071 17.8226 16.5183 18.2162 16.1346C18.3264 16.0271 18.3322 15.9675 18.2208 15.8576C17.6765 15.3209 17.1393 14.7769 16.6025 14.2324C16.5348 14.1637 16.4903 14.1448 16.4138 14.2226C15.862 14.7831 15.3087 15.3422 14.7499 15.8959C14.6594 15.9855 14.691 16.0234 14.7647 16.0968C15.1372 16.4673 15.5072 16.8403 15.8772 17.2133C16.0442 17.3817 16.2112 17.55 16.3784 17.7182C16.4011 17.7409 16.4268 17.7607 16.4487 17.7776Z" fill="white"/>
<path d="M22.7209 14.2106C22.7316 14.2203 22.7432 14.2306 22.7555 14.2415C22.7842 14.2669 22.8163 14.2953 22.8468 14.3255C22.997 14.4746 23.1471 14.6238 23.2972 14.7731C23.6785 15.1522 24.0604 15.532 24.4445 15.9081C24.5106 15.9729 24.5236 15.998 24.451 16.0691C23.9005 16.6088 23.3539 17.1525 22.81 17.699C22.7278 17.7816 22.6793 17.7993 22.5865 17.7045C22.067 17.1745 21.543 16.6487 21.0127 16.1295C20.9013 16.0205 20.9018 15.961 21.0131 15.8524C21.3921 15.4824 21.7663 15.1075 22.1404 14.7326C22.2848 14.588 22.4292 14.4433 22.5738 14.299C22.5811 14.2917 22.588 14.2838 22.5949 14.2758C22.6237 14.2426 22.6539 14.2077 22.7209 14.2106Z" fill="white"/>
<path d="M10.2639 17.762C10.271 17.7683 10.2776 17.7742 10.2832 17.7793C10.3363 17.7834 10.3602 17.7581 10.3833 17.7337C10.387 17.7298 10.3906 17.7259 10.3944 17.7222C10.5329 17.5848 10.6715 17.4475 10.81 17.3102C11.2258 16.8981 11.6416 16.4859 12.0568 16.0731C12.1145 16.0157 12.1204 15.9676 12.0496 15.8985C11.5077 15.3697 10.9685 14.838 10.4361 14.2998C10.3321 14.1946 10.2769 14.1992 10.1756 14.3016C9.6376 14.8451 9.09288 15.3819 8.54684 15.9174C8.487 15.9761 8.48254 16.0011 8.54478 16.0623C8.96011 16.4704 9.37314 16.8808 9.78615 17.2913C9.92691 17.4311 10.0677 17.571 10.2085 17.7108C10.2273 17.7295 10.2472 17.7472 10.2639 17.762Z" fill="white"/>
</svg>

<svg width="33" height="32" fill="none" xmlns="http://www.w3.org/2000/svg"><path d="M.5 16c0-8.837 7.163-16 16-16s16 7.163 16 16-7.163 16-16 16-16-7.163-16-16Z" fill="#F3BA2F"/><path d="M19.631 14.696c-.077-.012-.12-.06-.16-.106l-.034-.035-.39-.39a337.044 337.044 0 0 1-2.355-2.366c-.152-.154-.232-.154-.384 0-.506.516-1.018 1.028-1.529 1.54-.405.406-.81.812-1.213 1.22-.13.132-.205.148-.347.001a59.985 59.985 0 0 0-1.492-1.488c-.128-.124-.12-.2 0-.321 1.555-1.55 3.107-3.101 4.655-4.657.098-.098.152-.088.243.004 1.544 1.55 3.09 3.096 4.64 4.64.124.124.148.204.008.34-.35.339-.695.685-1.039 1.031l-.454.455c-.033.034-.07.064-.104.094a3.56 3.56 0 0 0-.045.038ZM21.373 19.129a1.697 1.697 0 0 1-.074.08l-1.072 1.076c-1.203 1.206-2.407 2.413-3.607 3.622-.101.102-.15.084-.24-.006a1779.323 1779.323 0 0 0-4.673-4.686c-.111-.111-.106-.177.003-.282a89.174 89.174 0 0 0 1.563-1.555c.123-.125.185-.06.256.014l.023.024.629.628v.002c.715.713 1.429 1.427 2.134 2.149.162.165.233.137.379-.01.463-.473.93-.94 1.397-1.409.444-.445.889-.891 1.33-1.34.15-.153.237-.151.385.003.341.355.69.702 1.04 1.049a146.814 146.814 0 0 1 .479.475c.037.032.076.066.078.133l-.016.017-.014.016Z" fill="#fff"/><path d="m16.449 17.778.024.019c.07.005.104-.03.136-.064l.01-.01.005-.006.42-.42.002-.001c.388-.389.777-.778 1.17-1.161.11-.108.116-.168.005-.277-.544-.537-1.082-1.081-1.619-1.626-.067-.068-.112-.087-.188-.01-.552.561-1.105 1.12-1.664 1.674-.09.09-.059.127.015.2a234.216 234.216 0 0 1 1.613 1.622c.023.023.049.043.07.06ZM22.72 14.21l.036.031c.028.026.06.054.09.085l.451.447c.381.38.763.759 1.148 1.135.066.065.079.09.006.161-.55.54-1.097 1.084-1.641 1.63-.082.083-.13.1-.223.005-.52-.53-1.044-1.055-1.574-1.575-.112-.109-.111-.168 0-.277.38-.37.753-.745 1.127-1.12l.434-.433a.428.428 0 0 0 .02-.023c.03-.033.06-.068.127-.065ZM10.264 17.762l.02.017c.052.004.076-.02.1-.045l.01-.012.416-.412 1.247-1.237c.057-.057.063-.105-.007-.175-.542-.528-1.082-1.06-1.614-1.598-.104-.105-.16-.1-.26.002a154.7 154.7 0 0 1-1.63 1.615c-.059.06-.063.084-.001.145.415.408.828.819 1.241 1.23l.423.419c.018.019.038.036.055.051Z" fill="#fff"/></svg>
